Newaita-dark/apps/48/gda-browser-5.0.svg

<svg height="48" viewBox="0 0 48 48" width="48" xmlns="http://www.w3.org/2000/svg" xmlns:xlink="http://www.w3.org/1999/xlink"><linearGradient id="a" gradientUnits="userSpaceOnUse" x1="23.81478" x2="23.81478" y1="42.0509045" y2="44.03547050005"><stop offset="0" stop-opacity=".27451"/><stop offset="1" stop-opacity="0"/></linearGradient><linearGradient id="b"><stop offset="0" stop-opacity=".313726"/><stop offset=".222222" stop-opacity=".27451"/><stop offset="1" stop-opacity="0"/></linearGradient><radialGradient id="c" cx="450.908936" cy="189.579361" gradientTransform="matrix(.00000026 -.117199 -.210958 -.00000015 79.684395 95.392999)" gradientUnits="userSpaceOnUse" r="21.166656" xlink:href="#b"/><radialGradient id="d" cx="450.908936" cy="189.579361" gradientTransform="matrix(-.00000026 .117199 .210958 .00000015 -31.80678 -11.291218)" gradientUnits="userSpaceOnUse" r="21.166656" xlink:href="#b"/><radialGradient id="e" cx="450.908936" cy="189.579361" gradientTransform="matrix(-.00000026 -.117199 .210958 -.00000015 -31.80678 95.392999)" gradientUnits="userSpaceOnUse" r="21.166656" xlink:href="#b"/><radialGradient id="f" cx="450.908936" cy="189.579361" gradientTransform="matrix(.00000026 .117199 -.210958 .00000015 79.684393 -11.291219)" gradientUnits="userSpaceOnUse" r="21.166656" xlink:href="#b"/><linearGradient id="g"><stop offset="0" stop-color="#9e9e9e"/><stop offset="1" stop-color="#bdbdbd"/></linearGradient><linearGradient id="h" gradientUnits="userSpaceOnUse" x1="23.814786" x2="23.814786" xlink:href="#g" y1="42.0509015" y2="4.34415649995"/><linearGradient id="i" gradientUnits="userSpaceOnUse" x1="23.814816" x2="23.814816" xlink:href="#g" y1="34.48479480616" y2="16.62368129293"/><path d="m7.691406 42.050781h32.496094v1.984375h-32.496094zm0 0" fill="url(#a)"/><path d="m40.1875 42.050781h3.96875v-1.984375h-3.96875zm0 0" fill="url(#c)"/><path d="m7.691406 42.050781h-3.96875v1.984375h3.96875zm0 0" fill="url(#d)"/><path d="m7.691406 42.050781h-3.96875v-1.984375h3.96875zm0 0" fill="url(#e)"/><path d="m40.1875 42.050781h3.96875v1.984375h-3.96875zm0 0" fill="url(#f)"/><path d="m4.464844 4.34375h38.699218c.820313 0 1.488282.667969 1.488282 1.488281v34.730469c0 .820312-.667969 1.488281-1.488282 1.488281h-38.699218c-.820313 0-1.488282-.667969-1.488282-1.488281v-34.730469c0-.820312.667969-1.488281 1.488282-1.488281zm0 0" fill="url(#h)"/><path d="m4.464844 4.34375c-.824219 0-1.488282.664062-1.488282 1.488281v.390625c0-.824218.664063-1.488281 1.488282-1.488281h38.699218c.824219 0 1.488282.664063 1.488282 1.488281v-.390625c0-.824219-.664063-1.488281-1.488282-1.488281zm0 0" fill="#fff" fill-opacity=".392157"/><path d="m4.464844 42.050781c-.824219 0-1.488282-.664062-1.488282-1.488281v-.496094c0 .824219.664063 1.488282 1.488282 1.488282h38.699218c.824219 0 1.488282-.664063 1.488282-1.488282v.496094c0 .824219-.664063 1.488281-1.488282 1.488281zm0 0" fill-opacity=".235294"/><path d="m4.464844 4.203125c-.898438 0-1.628906.730469-1.628906 1.628906v34.730469c0 .898438.730468 1.628906 1.628906 1.628906h38.699218c.898438 0 1.628907-.730468 1.628907-1.628906v-34.730469c0-.898437-.730469-1.628906-1.628907-1.628906zm0 .28125h38.699218c.75 0 1.347657.597656 1.347657 1.347656v34.730469c0 .75-.597657 1.347656-1.347657 1.347656h-38.699218c-.75 0-1.347656-.597656-1.347656-1.347656v-34.730469c0-.75.597656-1.347656 1.347656-1.347656zm0 0" fill="#212121"/><path d="m5.953125 10.792969h35.722656c.546875 0 .992188.445312.992188.992187v27.289063c0 .546875-.445313.992187-.992188.992187h-35.722656c-.546875 0-.992187-.445312-.992187-.992187v-27.289063c0-.546875.445312-.992187.992187-.992187zm0 0" fill-opacity=".235294"/><path d="m23.816406 17.617188c-4.398437 0-7.941406 1.769531-7.941406 3.96875 0 2.199218 3.542969 3.96875 7.941406 3.96875 4.394532 0 7.9375-1.769532 7.9375-3.96875 0-2.199219-3.542968-3.96875-7.9375-3.96875zm-7.691406 6.945312c-.164062.316406-.25.648438-.25.992188 0 2.199218 3.542969 3.96875 7.941406 3.96875 4.394532 0 7.9375-1.769532 7.9375-3.96875 0-.34375-.085937-.675782-.25-.992188-.875 1.714844-3.976562 2.976562-7.6875 2.976562-3.714844 0-6.816406-1.261718-7.691406-2.976562zm0 3.96875c-.164062.316406-.25.648438-.25.992188 0 2.199218 3.542969 3.96875 7.941406 3.96875 4.394532 0 7.9375-1.769532 7.9375-3.96875 0-.34375-.085937-.675782-.25-.992188-.875 1.714844-3.976562 2.976562-7.6875 2.976562-3.714844 0-6.816406-1.261718-7.691406-2.976562zm0 0" fill="url(#i)"/><path d="m5.953125 10.792969c-.550781 0-.992187.445312-.992187.992187v.496094c0-.546875.441406-.992188.992187-.992188h35.722656c.550781 0 .992188.445313.992188.992188v-.496094c0-.546875-.441407-.992187-.992188-.992187zm0 0" fill-opacity=".235294"/><path d="m5.953125 40.4375c-.550781 0-.992187-.441406-.992187-.992188v-.496093c0 .550781.441406.992187.992187.992187h35.722656c.550781 0 .992188-.441406.992188-.992187v.496093c0 .550782-.441407.992188-.992188.992188zm0 0" fill="#fff" fill-opacity=".392157"/><path d="m63.493937-99.885993h381.005282c5.832776 0 10.582323 4.749547 10.582323 10.582323v291.055539c0 5.832776-4.749547 10.582323-10.582323 10.582323h-381.005282c-5.832777 0-10.582323-4.749547-10.582323-10.582323v-291.055539c0-5.832776 4.749546-10.582323 10.582323-10.582323zm0 0" fill="none" stroke="#212121" stroke-linecap="round" stroke-linejoin="round" stroke-width="3" transform="matrix(.093759 0 0 .093759 0 20.158175)"/><path d="m23.816406 17.492188c-4.398437 0-7.941406 1.769531-7.941406 3.96875 0 .082031.007812.167968.015625.25.253906-2.085938 3.691406-3.722657 7.925781-3.722657 4.230469 0 7.667969 1.636719 7.921875 3.722657.007813-.082032.015625-.167969.015625-.25 0-2.199219-3.542968-3.96875-7.9375-3.96875zm-7.691406 6.945312c-.164062.316406-.25.648438-.25.992188 0 .082031.007812.167968.015625.25.03125-.257813.113281-.503907.234375-.746094.875 1.714844 3.976562 2.976562 7.691406 2.976562 3.710938 0 6.8125-1.261718 7.6875-2.976562.125.242187.203125.488281.234375.746094.007813-.082032.015625-.167969.015625-.25 0-.34375-.085937-.675782-.25-.992188-.875 1.714844-3.976562 2.976562-7.6875 2.976562-3.714844 0-6.816406-1.261718-7.691406-2.976562zm0 3.96875c-.164062.316406-.25.648438-.25.992188 0 .085937.007812.167968.015625.25.03125-.257813.113281-.503907.234375-.746094.875 1.714844 3.976562 2.976562 7.691406 2.976562 3.710938 0 6.8125-1.261718 7.6875-2.976562.125.242187.203125.488281.234375.746094.007813-.082032.015625-.164063.015625-.25 0-.34375-.085937-.675782-.25-.992188-.875 1.714844-3.976562 2.976562-7.6875 2.976562-3.714844 0-6.816406-1.261718-7.691406-2.976562zm0 0" fill="#fff" fill-opacity=".392157"/><path d="m15.9375 22.082031c-.039062.160157-.0625.328125-.0625.496094 0 2.199219 3.542969 3.96875 7.941406 3.96875 4.394532 0 7.9375-1.769531 7.9375-3.96875 0-.167969-.023437-.335937-.0625-.496094-.484375 1.960938-3.816406 3.472657-7.875 3.472657-4.0625 0-7.394531-1.511719-7.878906-3.472657zm0 3.96875c-.039062.160157-.0625.328125-.0625.496094 0 2.199219 3.542969 3.96875 7.941406 3.96875 4.394532 0 7.9375-1.769531 7.9375-3.96875 0-.167969-.023437-.335937-.0625-.496094-.484375 1.960938-3.816406 3.472657-7.875 3.472657-4.0625 0-7.394531-1.511719-7.878906-3.472657zm0 3.96875c-.039062.164063-.0625.328125-.0625.496094 0 2.199219 3.542969 3.96875 7.941406 3.96875 4.394532 0 7.9375-1.769531 7.9375-3.96875 0-.167969-.023437-.332031-.0625-.496094-.484375 1.964844-3.816406 3.472657-7.875 3.472657-4.0625 0-7.394531-1.507813-7.878906-3.472657zm0 0" fill-opacity=".235294"/><path d="m254.017409-27.101277c-46.912187 0-84.700245 18.873198-84.700245 42.329291 0 23.456094 37.788058 42.329291 84.700245 42.329291 46.870524 0 84.658582-18.873197 84.658582-42.329291 0-23.456093-37.788058-42.329291-84.658582-42.329291zm-82.033833 74.07626c-1.749833 3.374677-2.666412 6.916006-2.666412 10.582322 0 23.456094 37.788058 42.329291 84.700245 42.329291 46.870524 0 84.658582-18.873197 84.658582-42.329291 0-3.666316-.916579-7.207645-2.666412-10.582322-9.332442 18.28992-42.412616 31.746968-81.99217 31.746968-39.621216 0-72.70139-13.457048-82.033833-31.746968zm0 42.329291c-1.749833 3.374677-2.666412 6.916006-2.666412 10.582322 0 23.456094 37.788058 42.329292 84.700245 42.329292 46.870524 0 84.658582-18.873198 84.658582-42.329292 0-3.666316-.916579-7.207645-2.666412-10.582322-9.332442 18.28992-42.412616 31.746968-81.99217 31.746968-39.621216 0-72.70139-13.457048-82.033833-31.746968zm0 0" fill="none" stroke="#212121" stroke-linecap="round" stroke-linejoin="round" stroke-width="3" transform="matrix(.093759 0 0 .093759 0 20.158175)"/></svg>

<?xml version="1.0" encoding="UTF-8"?>
<svg xmlns="http://www.w3.org/2000/svg" xmlns:xlink="http://www.w3.org/1999/xlink" width="48pt" height="48pt" viewBox="0 0 48 48" version="1.1">
<defs>
<linearGradient id="linear0" gradientUnits="userSpaceOnUse" x1="254" y1="233.5" x2="254" y2="254.666672" gradientTransform="matrix(0.093759,0,0,0.093759,-0.00000572259,20.158178)">
<stop offset="0" style="stop-color:rgb(0%,0%,0%);stop-opacity:0.27451;"/>
<stop offset="1" style="stop-color:rgb(0%,0%,0%);stop-opacity:0;"/>
</linearGradient>
<radialGradient id="radial0" gradientUnits="userSpaceOnUse" cx="450.908936" cy="189.579361" fx="450.908936" fy="189.579361" r="21.166656" gradientTransform="matrix(0.000000261256,-0.117199,-0.210958,-0.000000152308,79.684395,95.392999)">
<stop offset="0" style="stop-color:rgb(0%,0%,0%);stop-opacity:0.313725;"/>
<stop offset="0.222222" style="stop-color:rgb(0%,0%,0%);stop-opacity:0.27451;"/>
<stop offset="1" style="stop-color:rgb(0%,0%,0%);stop-opacity:0;"/>
</radialGradient>
<radialGradient id="radial1" gradientUnits="userSpaceOnUse" cx="450.908936" cy="189.579361" fx="450.908936" fy="189.579361" r="21.166656" gradientTransform="matrix(-0.000000261256,0.117199,0.210958,0.000000152308,-31.80678,-11.291218)">
<stop offset="0" style="stop-color:rgb(0%,0%,0%);stop-opacity:0.313725;"/>
<stop offset="0.222222" style="stop-color:rgb(0%,0%,0%);stop-opacity:0.27451;"/>
<stop offset="1" style="stop-color:rgb(0%,0%,0%);stop-opacity:0;"/>
</radialGradient>
<radialGradient id="radial2" gradientUnits="userSpaceOnUse" cx="450.908936" cy="189.579361" fx="450.908936" fy="189.579361" r="21.166656" gradientTransform="matrix(-0.000000261256,-0.117199,0.210958,-0.000000152308,-31.80678,95.392999)">
<stop offset="0" style="stop-color:rgb(0%,0%,0%);stop-opacity:0.313725;"/>
<stop offset="0.222222" style="stop-color:rgb(0%,0%,0%);stop-opacity:0.27451;"/>
<stop offset="1" style="stop-color:rgb(0%,0%,0%);stop-opacity:0;"/>
</radialGradient>
<radialGradient id="radial3" gradientUnits="userSpaceOnUse" cx="450.908936" cy="189.579361" fx="450.908936" fy="189.579361" r="21.166656" gradientTransform="matrix(0.000000261256,0.117199,-0.210958,0.000000152308,79.684393,-11.291219)">
<stop offset="0" style="stop-color:rgb(0%,0%,0%);stop-opacity:0.313725;"/>
<stop offset="0.222222" style="stop-color:rgb(0%,0%,0%);stop-opacity:0.27451;"/>
<stop offset="1" style="stop-color:rgb(0%,0%,0%);stop-opacity:0;"/>
</radialGradient>
<linearGradient id="linear1" gradientUnits="userSpaceOnUse" x1="254" y1="233.5" x2="254" y2="-168.666672" gradientTransform="matrix(0.093759,0,0,0.093759,0,20.158175)">
<stop offset="0" style="stop-color:rgb(25.882353%,25.882353%,25.882353%);stop-opacity:1;"/>
<stop offset="1" style="stop-color:rgb(38.039216%,38.039216%,38.039216%);stop-opacity:1;"/>
</linearGradient>
<linearGradient id="linear2" gradientUnits="userSpaceOnUse" x1="254" y1="-115.75" x2="254" y2="212.333328" gradientTransform="matrix(1,0,0,1,0,0)">
<stop offset="0" style="stop-color:rgb(56.470588%,64.313725%,68.235294%);stop-opacity:1;"/>
<stop offset="1" style="stop-color:rgb(69.019608%,74.509804%,77.254902%);stop-opacity:1;"/>
</linearGradient>
<linearGradient id="linear3" gradientUnits="userSpaceOnUse" x1="960" y1="1295.118164" x2="960" y2="575.118103" gradientTransform="matrix(1,0,0,1,0,0)">
<stop offset="0" style="stop-color:rgb(25.882353%,25.882353%,25.882353%);stop-opacity:1;"/>
<stop offset="1" style="stop-color:rgb(38.039216%,38.039216%,38.039216%);stop-opacity:1;"/>
</linearGradient>
</defs>
<g id="surface1">
<path style=" stroke:none;fill-rule:nonzero;fill:url(#linear0);" d="M 7.691406 42.050781 L 40.1875 42.050781 L 40.1875 44.035156 L 7.691406 44.035156 Z M 7.691406 42.050781 "/>
<path style=" stroke:none;fill-rule:nonzero;fill:url(#radial0);" d="M 40.1875 42.050781 L 44.15625 42.050781 L 44.15625 40.066406 L 40.1875 40.066406 Z M 40.1875 42.050781 "/>
<path style=" stroke:none;fill-rule:nonzero;fill:url(#radial1);" d="M 7.691406 42.050781 L 3.722656 42.050781 L 3.722656 44.035156 L 7.691406 44.035156 Z M 7.691406 42.050781 "/>
<path style=" stroke:none;fill-rule:nonzero;fill:url(#radial2);" d="M 7.691406 42.050781 L 3.722656 42.050781 L 3.722656 40.066406 L 7.691406 40.066406 Z M 7.691406 42.050781 "/>
<path style=" stroke:none;fill-rule:nonzero;fill:url(#radial3);" d="M 40.1875 42.050781 L 44.15625 42.050781 L 44.15625 44.035156 L 40.1875 44.035156 Z M 40.1875 42.050781 "/>
<path style=" stroke:none;fill-rule:nonzero;fill:url(#linear1);" d="M 4.464844 4.34375 L 43.164062 4.34375 C 43.984375 4.34375 44.652344 5.011719 44.652344 5.832031 L 44.652344 40.5625 C 44.652344 41.382812 43.984375 42.050781 43.164062 42.050781 L 4.464844 42.050781 C 3.644531 42.050781 2.976562 41.382812 2.976562 40.5625 L 2.976562 5.832031 C 2.976562 5.011719 3.644531 4.34375 4.464844 4.34375 Z M 4.464844 4.34375 "/>
<path style=" stroke:none;fill-rule:nonzero;fill:rgb(100%,100%,100%);fill-opacity:0.392157;" d="M 4.464844 4.34375 C 3.640625 4.34375 2.976562 5.007812 2.976562 5.832031 L 2.976562 6.328125 C 2.976562 5.503906 3.640625 4.839844 4.464844 4.839844 L 43.164062 4.839844 C 43.988281 4.839844 44.652344 5.503906 44.652344 6.328125 L 44.652344 5.832031 C 44.652344 5.007812 43.988281 4.34375 43.164062 4.34375 Z M 4.464844 4.34375 "/>
<path style=" stroke:none;fill-rule:nonzero;fill:rgb(0%,0%,0%);fill-opacity:0.235294;" d="M 4.464844 42.050781 C 3.640625 42.050781 2.976562 41.386719 2.976562 40.5625 L 2.976562 40.066406 C 2.976562 40.890625 3.640625 41.554688 4.464844 41.554688 L 43.164062 41.554688 C 43.988281 41.554688 44.652344 40.890625 44.652344 40.066406 L 44.652344 40.5625 C 44.652344 41.386719 43.988281 42.050781 43.164062 42.050781 Z M 4.464844 42.050781 "/>
<path style=" stroke:none;fill-rule:nonzero;fill:rgb(12.941177%,12.941177%,12.941177%);fill-opacity:1;" d="M 4.464844 4.203125 C 3.566406 4.203125 2.835938 4.933594 2.835938 5.832031 L 2.835938 40.5625 C 2.835938 41.460938 3.566406 42.191406 4.464844 42.191406 L 43.164062 42.191406 C 44.0625 42.191406 44.792969 41.460938 44.792969 40.5625 L 44.792969 5.832031 C 44.792969 4.933594 44.0625 4.203125 43.164062 4.203125 Z M 4.464844 4.484375 L 43.164062 4.484375 C 43.914062 4.484375 44.511719 5.082031 44.511719 5.832031 L 44.511719 40.5625 C 44.511719 41.3125 43.914062 41.910156 43.164062 41.910156 L 4.464844 41.910156 C 3.714844 41.910156 3.117188 41.3125 3.117188 40.5625 L 3.117188 5.832031 C 3.117188 5.082031 3.714844 4.484375 4.464844 4.484375 Z M 4.464844 4.484375 "/>
<path style="fill-rule:nonzero;fill:url(#linear2);stroke-width:3;stroke-linecap:round;stroke-linejoin:round;stroke:rgb(12.941177%,12.941177%,12.941177%);stroke-opacity:1;stroke-miterlimit:4;" d="M 63.493937 -115.759477 L 444.499219 -115.759477 C 450.331995 -115.759477 455.081542 -111.009931 455.081542 -105.177154 L 455.081542 201.751869 C 455.081542 207.584645 450.331995 212.334192 444.499219 212.334192 L 63.493937 212.334192 C 57.66116 212.334192 52.911614 207.584645 52.911614 201.751869 L 52.911614 -105.177154 C 52.911614 -111.009931 57.66116 -115.759477 63.493937 -115.759477 Z M 63.493937 -115.759477 " transform="matrix(0.093759,0,0,0.093759,0,20.158175)"/>
<path style="fill-rule:nonzero;fill:url(#linear3);stroke-width:11.338583;stroke-linecap:round;stroke-linejoin:round;stroke:rgb(12.941177%,12.941177%,12.941177%);stroke-opacity:1;stroke-miterlimit:4;" d="M 960.065849 615.059407 C 782.759937 615.059407 639.938923 686.548647 639.938923 775.044138 C 639.938923 863.697094 782.759937 935.186334 960.065849 935.186334 C 1137.214296 935.186334 1280.03531 863.697094 1280.03531 775.044138 C 1280.03531 686.548647 1137.214296 615.059407 960.065849 615.059407 Z M 650.016701 895.190151 C 643.403159 907.944839 639.938923 921.329389 639.938923 935.186334 C 639.938923 1023.681825 782.759937 1095.171065 960.065849 1095.171065 C 1137.214296 1095.171065 1280.03531 1023.681825 1280.03531 935.186334 C 1280.03531 921.329389 1276.571074 907.944839 1269.957532 895.190151 C 1234.685308 964.317412 1109.657871 1015.178699 960.065849 1015.178699 C 810.316362 1015.178699 685.288925 964.317412 650.016701 895.190151 Z M 650.016701 1055.174882 C 643.403159 1067.92957 639.938923 1081.314119 639.938923 1095.171065 C 639.938923 1183.824021 782.759937 1255.155795 960.065849 1255.155795 C 1137.214296 1255.155795 1280.03531 1183.824021 1280.03531 1095.171065 C 1280.03531 1081.314119 1276.571074 1067.92957 1269.957532 1055.174882 C 1234.685308 1124.302142 1109.657871 1175.16343 960.065849 1175.16343 C 810.316362 1175.16343 685.288925 1124.302142 650.016701 1055.174882 Z M 650.016701 1055.174882 " transform="matrix(0.0248071,0,0,0.0248071,0,0)"/>
</g>
</svg>
